24x24/actions/cd.svg

<svg xmlns="http://www.w3.org/2000/svg" viewBox="0 0 24 24">
  <defs id="defs3051">
    <style type="text/css" id="current-color-scheme">
      .ColorScheme-Text {
        color:#5d656b;
      }
      </style>
  </defs>
 <path style="fill:currentColor;fill-opacity:1;stroke:none" 
     d="M 12 4 C 7.568 4 4 7.568 4 12 C 4 16.432 7.568 20 12 20 C 16.432 20 20 16.432 20 12 C 20 7.568 16.432 4 12 4 z M 12 5 C 15.878 5 19 8.122 19 12 C 19 15.878 15.878 19 12 19 C 8.122 19 5 15.878 5 12 C 5 8.122 8.122 5 12 5 z M 12 10 C 10.892001 10 10 10.892001 10 12 C 10 13.107999 10.892001 14 12 14 C 13.107999 14 14 13.107999 14 12 C 14 10.892001 13.107999 10 12 10 z M 12 11 C 12.553999 11 13 11.446001 13 12 C 13 12.553999 12.553999 13 12 13 C 11.446001 13 11 12.553999 11 12 C 11 11.446001 11.446001 11 12 11 z "
     class="ColorScheme-Text"
     />
</svg>

<svg xmlns="http://www.w3.org/2000/svg" viewBox="0 0 24 24"><path style="fill:currentColor;fill-opacity:1;stroke:none;color:#5d656b" d="M12 4c-4.432 0-8 3.568-8 8s3.568 8 8 8 8-3.568 8-8-3.568-8-8-8zm0 1c3.878 0 7 3.122 7 7s-3.122 7-7 7-7-3.122-7-7 3.122-7 7-7zm0 5c-1.108 0-2 .892-2 2s.892 2 2 2 2-.892 2-2-.892-2-2-2zm0 1c.554 0 1 .446 1 1s-.446 1-1 1-1-.446-1-1 .446-1 1-1z"/></svg>
